X:1
T:White as the Wings of a Dove
T:White as the Wings of a Dove
T:Jairus Maxson Stillman
T:Luella F. Cole, 1878
T:Public Domain Courtesy of the Cyber Hymnal™
T:Public Domain Courtesy of the Cyber Hymnal™
C:Jairus Maxson Stillman
Z:Public Domain
Z:Courtesy of the Cyber Hymnal™
%%score ( 1 2 ) ( 3 4 )
L:1/8
Q:1/4=108
M:4/4
K:D
V:1 treble 
V:2 treble 
V:3 bass 
V:4 bass 
V:1
 [DF]2 [DF]>[CE] D2 [DF]>[EG] | [FA]2 [FA]>[EG] [DF]3 z | [CE]2 [CA]>[DB] [Ec]2 [DB]>[DB] | %3
w: 1.~Yet shall ye be as a|dove’s shin- ing wings,|Co- vered with sil- ver and|
w: 2.~What tho’ our tent- homes are|cov- ered with dust,|While thro’ life’s de- sert we|
w: 3.~What tho’ our gar- ments like|le- pro- sy cling,|Robes of self- right- eous- ness|
w: 4.~What tho’ we lie ’midst the|filth of the earth,|Or as a pro- di- gal|
w: 5.~What tho’ for years we have|wan- dered in sin,|And ’gainst the Good Spir- it|
 ([CA]2 [EG]2 [DF]2 [CE]2) | D2 [DF]>[CE] D2 [DF]>[EG] | [FA]2 [Fd]>[Fd] [GB]3 z | %6
w: gold; * * *|Gra- cious as- sur- ance the|Word ev- er brings,|
w: move; * * *|Time com- eth when they shall|flut- ter, we trust,|
w: wove; * * *|Prais- es to Je- sus! for|yet we may sing,|
w: rove; * * *|We may come up from the|Spir- it’s new birth,|
w: strove; * * *|Thro’ Heav- en’s por- tals we|yet may go in,|
 [FA]2 [EG]>[DF] [EG]2 [DF]>[CE] | D6 z2 ||"^Refrain" [Fd]2 [Ac]>[GB] [FA]2 [DF][FA] | %9
w: Prom- ise of beau- ty un-|told.||
w: White as the wings of a|dove.||
w: Clad as the wings of a|dove.|Shine on us, Sav- ior, oh,|
w: Clean as the wings of a|dove.||
w: Pure as the wings of a|dove.||
 [GB]2 [GB]>[Gc] [Gd]3 z | [Fd]2 [Ac]>[GB] [FA]2 [FB]>[FA] | [E^G]2 [DF]>[DG] ([CA]2 [E=G]2) | %12
w: |||
w: |||
w: shed forth Thy love;|Make us as white as the|wings of a dove; *|
w: |||
w: |||
 [DF]2 [DF]>[CE] D2 [DF]>[EG] | [FA]2 [FA]>[EG] [DF]3 z | (GA) [GB]>[Gc] [Gd]2 [Ge]>[Gd] | %15
w: |||
w: |||
w: Shine on us, Sav- ior, oh,|shed forth Thy love;|Make * us as white as the|
w: |||
w: |||
 [Gc]2 [GB]>[Gc] [Fd]4 |] %16
w: |
w: |
w: wings of a dove.|
w: |
w: |
V:2
 x4 D2 x2 | x8 | x8 | x8 | D2 D2 x4 | x8 | x8 | D6 x2 || x8 | x8 | x8 | x8 | x4 D2 x2 | x8 | %14
 D2 x6 | x8 |] %16
V:3
 [D,A,]2 [D,A,]>[D,G,] [D,F,]2 [D,A,]>[D,A,] | [D,D]2 [D,A,]>[D,A,] [D,A,]3 z | %2
 [E,A,]2 [E,A,]>[E,A,] [E,A,]2 [E,^G,]>[E,G,] | [A,,A,]6 z2 | %4
 [D,F,]2 [D,A,]>[D,G,] [D,F,]2 [D,A,]>[D,A,] | [D,D]2 [D,D]>[D,D] [G,D]3 z | %6
 [A,D]2 A,>A, [A,,A,]2 [A,,A,]>[A,,G,] | [D,F,]6 z2 || [D,A,]2 [D,B,]>[D,C] [D,D]2 [D,D][D,D] | %9
 [G,D]2 [G,D]>[G,C] [G,B,]3 z | [D,A,]2 [D,B,]>[D,C] [D,D]2 [D,D]>[D,C] | %11
 [E,B,]2 [E,B,]>[E,B,] [A,,A,]4 | [D,A,]2 [D,A,]>[D,G,] [D,F,]2 [D,A,]>[D,A,] | %13
 [D,D]2 [D,A,]>[D,A,] [D,A,]3 z | (B,C) [G,D]>[G,C] [G,B,]2 [G,B,]>[G,B,] | A,2 A,>A, [D,A,]4 |] %16
V:4
 x8 | x8 | x8 | x8 | x8 | x8 | x2 A,>A, x4 | x8 || x8 | x8 | x8 | x8 | x8 | x8 | G,2 x6 | %15
 A,2 A,>A, x4 |] %16

